X:1
T:Title
%%score { ( 1 3 ) | ( 2 4 ) }
L:1/8
M:4/4
K:Bb
V:1 treble nm="Grand Piano"
V:3 treble 
V:2 bass 
V:4 bass 
V:1
 z4 z2[Q:1/4=100] [DFB]2 |[M:3/4] [Fd]>[DB] [DF]2 E-[EA] | [DB]4 F2 | e>e d2 [FB]2 | c4 F2 | %5
 [Fd]2 [=E_d]2 [F=d]2 | [DB]4 [FB]2 | [GB]2 A2 [EGB]2 | [B,EG]4 [CEG]2 | %9
 [A,CF]3 [CEF] [B,DF][A,CF] |[M:2/4] [B,DF]4 |] %11
V:2
 z4 z2 [B,,B,]2 |[M:3/4] [B,,B,]>[B,,B,] [B,,B,]2 z F, | [B,,F,]4 F,2 | %3
 [F,CF]>[F,CF] [B,F]2[K:bass] [D,B,]2 | [F,A,F]4 [F,A,]2 | [B,,B,]4 [B,,B,]2 | [B,,D,F,]4 [D,B,]2 | %7
 z2 ^F2 E,2 | E,4 C,2 | F,3 F, F,F, |[M:2/4] B,,4 |] %11
V:3
 x8 |[M:3/4] z2 z2 .[B,G]2 | x6 | x6 | x6 | x6 | x6 | x6 | x6 | x6 |[M:2/4] x4 |] %11
V:4
 x8 |[M:3/4] z2 z2 B,,2 | x6 | x4[K:bass] x2 | x6 | x6 | x6 | [E,E]4 z2 | x6 | x6 |[M:2/4] x4 |] %11

